X:1
T:Trusting and Hoping
T:Trusting and Hoping
T:William Howard Doane
T:Frances Jane (Fanny) Crosby, 1889
T:Public Domain Courtesy of the Cyber Hymnal™
T:Public Domain Courtesy of the Cyber Hymnal™
C:William Howard Doane
Z:Public Domain
Z:Courtesy of the Cyber Hymnal™
%%score ( 1 2 ) ( 3 4 )
L:1/8
Q:1/4=110
M:9/8
K:F
V:1 treble 
V:2 treble 
V:3 bass 
V:4 bass 
V:1
 F[FG][FA] | [Fc]3 [Fc]3 [FA][CG][CF] | [B,D]3 [DF]3 [CF][EG][FA] | [Fc]3 [FA]3 [FA][FG]F | %4
w: 1.~I am re-|joic- ing, trust- ing and|hop- ing; Look- ing to|Je- sus, Sav- ior di-|
w: 2.~I am re-|joic- ing, trust- ing and|hop- ing; He is my|Sav- ior; what shall I|
w: 3.~I am re-|joic- ing, trust- ing and|hop- ing; In- to the|man- sions wait- ing a-|
 [EG]6 F[FG][FA] | [Fc]3 [Fc]3 [_EA][EG][EF] | [DF]3 [DB]3 [DB][DA][DG] | %7
w: vine; He is my|re- fuge; soft- ly He|whis- pers, “I have re-|
w: fear? He like a|shep- herd lead- eth me|gent- ly, Close by the|
w: bove; Clothed in His|bright- ness, He will re-|ceive me, Heir to His|
 [CA]3 [CA]3 [CG][CF][CE] | [CF]6 ||"^Refrain" [FA][Ac][ce] | [Bd]3 [Bd]3 [DF][FB][Bd] | %11
w: deemed thee, child, thou art|Mine.”|I am re-|joic- ing, ev- er re-|
w: wa- ters flow- ing so|clear.|||
w: king- dom, child of His|love.|||
 [Ac]3 [Ac]3 F[FA][Ac] | [GB]3 [GB]3 [GB][FA][EG] | [FA]6 [FA][Ac][ce] | [Bd]3 [Bd]3 [DF][FB][Bd] | %15
w: joic- ing, Trust- ing and|hop- ing all the day|long; Look- ing to|Je- sus, on- ly to|
w: ||||
w: ||||
 [Ac]3 [Ac]3 F[EG][FA] | [FB]3 [FA]3 [CG][CF][CE] | [CF]6 |] %18
w: Je- sus; He is my|re- fuge, com- fort and|song.|
w: |||
w: |||
V:2
 F x2 | x9 | x9 | x8 F | x6 F x2 | x9 | x9 | x9 | x6 || x3 | x9 | x6 F x2 | x9 | x9 | x9 | %15
 x6 F x2 | x9 | x6 |] %18
V:3
 [F,A,][F,B,][F,C] | [F,A,]3 [F,A,]3 [F,C][F,B,][F,A,] | [B,,F,]3 [B,,B,]3 [A,,C][C,C][F,C] | %3
w: ~ ~ ~|~ ~ ~ ~ ~|~ ~ ~ ~ ~|
 [F,A,]3 [F,C]3 [D,C][D,=B,][G,B,] | [C,C]6 [F,A,][F,B,][F,C] | [F,A,]3 [F,A,]3 [F,C][F,B,][F,A,] | %6
w: ~ ~ ~ ~ ~|~ ~ ~ ~|~ ~ ~ ~ ~|
 [B,,B,]3 [B,,F,]3 [B,,F,][B,,F,][B,,F,] | [C,F,]3 [C,F,]3 [C,B,][C,A,][C,G,] | [F,,A,]6 || FFF | %10
w: ~ ~ ~ ~ ~|~ ~ ~ ~ ~|~|~ ~ ~|
 F3 [B,F]3 B,DF | F3 [F,F]3 z3 | [C,C][C,C][C,C] [C,C]3 [C,C][C,C][C,C] | %13
w: I will re- joice, ~|~ ~|ev- er re- oice Trust- ing in|
 [F,C][F,C][F,C] [F,C]3 FFF | F3 [B,F]3 B,DF | F3 [F,F]3 [A,C][G,C][F,B,] | %16
w: hope all the day, all the day|long; ~ ~ ~ Look-|ing to Him, ~ ~|
 [B,,D]3 [C,C]3 [C,B,][C,A,][C,G,] | [F,,A,]6 |] %18
w: ~ on- ly to Him;||
V:4
 x3 | x9 | x9 | x9 | x9 | x9 | x9 | x9 | x6 || x3 | B,,D,F, x6 | F,A,C x6 | x9 | x9 | B,,D,F, x6 | %15
 F,A,C x6 | x9 | x6 |] %18

